X: 1
T: The Outdoor Relief
R: reel
M: 4/4
L: 1/8
K: Gmaj
gf|edBA BAGA|Bdef g2 fg|eBdB GA(3Bcd|e2 dB A2gf|
edBA BAGA|Bdef g2 fg|eBBA G2 AB|d2 ed BA A2|
eaaa agag|eaaf g2 fg|eaaa bgaf|gedB A2 Bd|
eaaa bgag|eaaf g3a|bgaf gfed|cdef g2:|

